X:4945
T:Paddy Kelly's
O:england
C:Paddy O'Brien (Nenagh)
R:reel
N:Also a quite different version in Gmix, #657
D:Vinnie Kilduff: The Boys from the Blue Hill
M:C|
K:Amix
~A2EA fAeA|~G2dG eGdG|EA~A2 fAeA|GA (3Bcd gdBG|
~A2EA fAeA|~G2dG eGdG|AGEF GA (3Bcd|1 gdBG AEF^G:|2 gdBG Aaag||
|:e2a^g ac'ea|c'ab^g a=geg|dG (3Bcd gBdg|bgag ed (3Bcd|
eaa^g ac'ea|c'ab^g a=gef|g2gb af (3gfe|1 dBGB Aaag:|2 dBGB AEF^G||
